icons/arrow-bar-in-down.svg

<svg xmlns="http://www.w3.org/2000/svg" width="24" height="24" viewBox="0 0 24 24">
  <path d="M21,20 C21.5522847,20 22,20.4477153 22,21 C22,21.5128358 21.6139598,21.9355072 21.1166211,21.9932723 L21,22 L3,22 C2.44771525,22 2,21.5522847 2,21 C2,20.4871642 2.38604019,20.0644928 2.88337887,20.0067277 L3,20 L21,20 Z M12,18 L11.949,17.998 L11.957,17.998 L11.921,17.996 L11.93,17.997 L11.9247615,17.9972121 L11.92,17.996 L11.917,17.996 L11.8510388,17.9889807 L11.8510388,17.9889807 C11.834051,17.9863719 11.8166247,17.9832978 11.7992742,17.9797599 C11.7772539,17.9753602 11.7555635,17.9701664 11.7341604,17.964279 C11.7182588,17.9598259 11.7025958,17.9551048 11.6870335,17.9499916 C11.6689468,17.9440997 11.6508514,17.9375547 11.6330072,17.9305112 C11.613165,17.9226898 11.5932325,17.9140881 11.5735404,17.9048078 C11.5549095,17.8959557 11.5371537,17.8868931 11.5197141,17.8773256 C11.5064305,17.8701389 11.4928304,17.8622728 11.4793822,17.8540601 C11.4583066,17.8410808 11.4377852,17.8274737 11.4178133,17.8131491 C11.4048869,17.8039771 11.3917355,17.79405 11.3787805,17.7837553 C11.3484595,17.7595963 11.3199072,17.7341207 11.2928932,17.7071068 L5.63603897,12.0502525 C5.24551468,11.6597282 5.24551468,11.0265633 5.63603897,10.636039 C5.99652293,10.275555 6.56375399,10.2478255 6.95604519,10.5528504 L7.05025253,10.636039 L10.9991458,14.585 L11,3 C11,2.44771525 11.4477153,2 12,2 C12.5128358,2 12.9355072,2.38604019 12.9932723,2.88337887 L13,3 L12.9991458,14.585 L16.9497475,10.636039 C17.3402718,10.2455147 17.9734367,10.2455147 18.363961,10.636039 C18.724445,10.9965229 18.7521745,11.563754 18.4471496,11.9560452 L18.363961,12.0502525 L12.7071068,17.7071068 L12.6631931,17.7484633 L12.6631931,17.7484633 L12.654,17.755 L12.6483271,17.7614296 L12.634,17.772 L12.621,17.783 L12.624,17.78 L12.5864257,17.8101853 L12.5864257,17.8101853 C12.5664533,17.8245831 12.5456983,17.8384932 12.5244138,17.8516276 C12.5087703,17.8613648 12.4935488,17.8701866 12.4781534,17.8785739 C12.4604898,17.8881407 12.4419547,17.897529 12.4230991,17.9063462 L12.371336,17.9287745 L12.371336,17.9287745 C12.3515792,17.9366843 12.3317977,17.9438775 12.3117364,17.9504533 C12.2968513,17.9552713 12.2814633,17.9599023 12.265993,17.9641549 C12.2444365,17.9701664 12.2227461,17.9753602 12.2007941,17.9798348 C12.1926434,17.981408 12.1845447,17.9829554 12.1764315,17.9844021 L12.1489612,17.9889807 C12.1278772,17.9921295 12.1065782,17.9946202 12.0850857,17.9964311 L12.0590314,17.9982669 L12.0332497,17.9994576 C12.0222108,17.9998183 12.0111266,18 12,18 L11.9661458,17.998 L11.957,17.998 L12,18 Z"/>
</svg>

<svg xmlns="http://www.w3.org/2000/svg" viewBox="0 0 24 24">
  <path d="M21 20a1 1 0 0 1 .12 2H3a1 1 0 0 1-.12-2H21zm-9-2h-.08.01-.01l-.07-.01a1.08 1.08 0 0 1-.37-.14 1.05 1.05 0 0 1-.19-.14l-5.65-5.66a1 1 0 0 1 1.32-1.5l.09.09L11 14.59V3a1 1 0 0 1 2-.12V14.6l3.95-3.95a1 1 0 0 1 1.5 1.32l-.09.09-5.65 5.66-.05.04-.01.01-.02.01v.01l-.04.03a1.04 1.04 0 0 1-.17.1l-.05.02a.99.99 0 0 1-.2.05h-.02a1 1 0 0 1-.06.02h-.13.04z"/>
</svg>
